assets/features/channel/east-asia/Alipay.svg

<svg width="80" height="80" viewBox="0 0 80 80" fill="none" xmlns="http://www.w3.org/2000/svg">
<rect x="0.5" y="0.5" width="79" height="79" rx="7.5" fill="white"/>
<rect x="0.5" y="0.5" width="79" height="79" rx="7.5" stroke="#EEEEEE"/>
<path d="M32.4369 33.1843C33.4232 33.1843 34.2227 32.4715 34.2227 31.5922C34.2227 30.7128 33.4232 30 32.4369 30C31.4506 30 30.651 30.7128 30.651 31.5922C30.651 32.4715 31.4506 33.1843 32.4369 33.1843Z" fill="#5B9EDD"/>
<path d="M24.6215 31.7391V45.505H27.9466V30.9717H25.3948C25.1906 30.9713 24.9945 31.0518 24.8496 31.1957C24.7047 31.3395 24.6226 31.5349 24.6215 31.7391Z" fill="#3D3A39"/>
<path d="M30.7743 35.6141V45.509H34.098V34.8408H31.5476C31.4461 34.8408 31.3455 34.8608 31.2517 34.8997C31.1579 34.9385 31.0726 34.9955 31.0008 35.0673C30.929 35.1391 30.872 35.2244 30.8332 35.3182C30.7943 35.412 30.7743 35.5126 30.7743 35.6141Z" fill="#3D3A39"/>
<path d="M43.1036 34.5928C41.9716 34.6061 40.8847 35.0384 40.0528 35.8063V34.8408H37.501C37.2959 34.8408 37.0992 34.9222 36.9542 35.0673C36.8091 35.2123 36.7277 35.409 36.7277 35.6141V49.7762H40.0528V45.0804C40.6633 45.5271 41.4055 45.7569 42.1615 45.7334C45.2622 45.7334 47.6438 43.0539 47.6438 39.6803C47.6438 36.3067 45.1888 34.5928 43.1036 34.5928ZM42.0118 44.5903C41.331 44.5903 40.6075 43.9461 40.0528 43.3004V37.5775C40.5708 37.0639 41.4498 36.3258 42.2114 36.3258C43.3516 36.3258 44.4125 37.8886 44.4125 40.1719C44.4125 42.4552 43.3765 44.5903 42.0118 44.5903Z" fill="#3D3A39"/>
<path d="M53.9699 34.5928C51.035 34.5928 50.0753 35.2135 50.0753 35.2135L50.4231 35.9575C50.4231 35.9575 51.5149 35.5539 53.3007 35.5539C55.2847 35.5539 55.4842 36.6207 55.4842 37.9356V38.5489C54.7499 38.3388 53.9897 38.2326 53.2259 38.2334C51.713 38.2334 49.0334 38.8292 49.0334 41.9299C49.0334 45.0305 51.4151 45.7261 52.9779 45.7261C53.8935 45.7261 54.8474 45.2506 55.4842 44.8559V45.503H58.8079V37.9414C58.8079 35.7095 56.8974 34.5928 53.9699 34.5928ZM53.7718 44.3174C52.3821 44.3174 51.5149 43.4985 51.5149 41.9856C51.5149 40.4727 53.0527 39.5292 54.2677 39.5292C54.8796 39.5292 55.2582 39.7243 55.4842 39.918V43.6247C55.0158 44.0549 54.4075 44.3009 53.7718 44.3174Z" fill="#3D3A39"/>
<path d="M72 34.5933H69.7696L66.776 41.4094L66.6939 41.2495L63.2821 34.5918H59.8762L65.0797 44.7463L65.2044 44.9899L64.6629 46.2299C63.8221 47.8969 61.4155 47.7854 61.4155 47.7854V49.1809C62.0103 49.2289 62.6081 49.2289 63.2029 49.1809C63.9175 49.0987 65.5082 48.6233 66.2844 46.9798L67.8737 43.5387L72 34.5933Z" fill="#3D3A39"/>
<path d="M16.4054 30.9717H14.9937L13.8477 33.3533L8 45.5065H10.2481L11.4044 43.0999H18.3688L19.4855 45.5065H23.1541L16.8177 31.8595L16.4054 30.9717ZM17.8963 42.0859H11.8945L14.9497 35.7349L17.8963 42.0859Z" fill="#3D3A39"/>
</svg>

<svg xmlns="http://www.w3.org/2000/svg" width="80" height="80" fill="none" viewBox="0 0 80 80"><rect width="79" height="79" x=".5" y=".5" fill="#fff" rx="7.5"/><rect width="79" height="79" x=".5" y=".5" stroke="#eee" rx="7.5"/><path fill="#5b9edd" d="M32.437 33.184c.986 0 1.786-.712 1.786-1.592S33.423 30 32.437 30s-1.786.713-1.786 1.592.8 1.592 1.786 1.592"/><path fill="#3d3a39" d="M24.622 31.74v13.765h3.325V30.972h-2.552a.77.77 0 0 0-.773.767m6.152 3.875v9.895h3.324V34.841h-2.55a.773.773 0 0 0-.774.773m12.33-1.021a4.58 4.58 0 0 0-3.051 1.213v-.965H37.5a.773.773 0 0 0-.773.773v14.162h3.325V45.08c.61.447 1.353.677 2.108.653 3.101 0 5.483-2.68 5.483-6.053s-2.455-5.087-4.54-5.087m-1.092 9.997c-.681 0-1.404-.644-1.96-1.29v-5.722c.519-.514 1.398-1.252 2.16-1.252 1.14 0 2.2 1.563 2.2 3.846s-1.035 4.418-2.4 4.418m11.959-9.997c-2.935 0-3.895.62-3.895.62l.348.745s1.092-.404 2.878-.404c1.984 0 2.183 1.067 2.183 2.382v.613a8.2 8.2 0 0 0-2.258-.316c-1.513 0-4.193.596-4.193 3.697s2.382 3.796 3.945 3.796c.916 0 1.87-.475 2.506-.87v.647h3.324v-7.562c0-2.232-1.91-3.348-4.838-3.348m-.198 9.724c-1.39 0-2.257-.819-2.257-2.331s1.538-2.457 2.753-2.457c.612 0 .99.195 1.216.389v3.707a2.63 2.63 0 0 1-1.712.692M72 34.593h-2.23l-2.994 6.816-.082-.16-3.412-6.657h-3.406l5.204 10.154.124.244-.541 1.24c-.84 1.667-3.247 1.555-3.247 1.555v1.396q.893.072 1.787 0c.714-.082 2.305-.558 3.081-2.201l1.59-3.441zm-55.595-3.621h-1.411l-1.146 2.381L8 45.507h2.248l1.156-2.407h6.965l1.116 2.407h3.67L16.817 31.86zm1.491 11.114h-6.001l3.055-6.351z"/></svg>
